projects/flag-game/flags/Bahrain.svg

<svg viewBox="0 0 1000 600" xmlns="http://www.w3.org/2000/svg"><path d="m0 0h1000v600h-1000z" fill="#fff"/><path d="m1000 0h-753.332031l153.332031 60-153.332031 60 153.332031 60-153.332031 60 153.332031 60-153.332031 60 153.332031 60-153.332031 60 153.332031 60-153.332031 60h753.332031zm0 0" fill="#ce1126" fill-rule="evenodd"/></svg>

<?xml version="1.0" encoding="UTF-8"?>
<svg xmlns="http://www.w3.org/2000/svg" xmlns:xlink="http://www.w3.org/1999/xlink" viewBox="0 0 1000 600" version="1.1">
<g id="surface149">
<rect x="0" y="0" width="1000" height="600" style="fill:rgb(99.998474%,99.998474%,99.998474%);fill-opacity:1;stroke:none;"/>
<path style=" stroke:none;fill-rule:evenodd;fill:rgb(80.783081%,6.666565%,14.901733%);fill-opacity:1;" d="M 1000 0 L 246.667969 0 L 400 60 L 246.667969 120 L 400 180 L 246.667969 240 L 400 300 L 246.667969 360 L 400 420 L 246.667969 480 L 400 540 L 246.667969 600 L 1000 600 Z M 1000 0 "/>
</g>
</svg>
